X: 35
T:Humours of Scariff, The
M:C|
L:1/8
R:Reel
K:DDor
d3e f2ed|cAGc AcGc|Adde f2ed|cAGE EDD2|!
~d3e f2ed|cAGc AcGc|Adde f2ed|cAGE EDDf|]!
(3edc gc acgc|(3edc gc eaag|(3edc gc acgc|ed~d2 Addf|!
(3edc gc acgc|(3edc gc eaag|~a3g efed|cAGE EDD2|]!
